X:1
T: Mrs Gregory's Strathspey
C:
R:Strathspey
Q: 128
K:D
M:4/4
L:1/16
|:D2|FA3 A3B A3B d3g|fd3 g3d B4 B3d|FA3 A3B A3B d3B|AF3 E3F D4 D2D2|
FA3 A3B A3B d3g|fd3 g3d B4 B3d|FA3 A3B A3B d3B|AF3 E3F D4 D2fg|
a3d f3d defg a4|BB3 g3f e4 e2fg|a3d f3e defg a3f|dB3 A3F A4 A2fg|
a3d f3d defg a4|BB3 g3f e4 e2fg|a3d f3e dA3 B3d|1A2d2 AGFE D4 D2:|2A2d2 cdec d4||
